Simply-Blue-Circles/symbolic/places/folder-publicshare-symbolic.svg

<svg xmlns="http://www.w3.org/2000/svg" width="24" height="24" version="1"><defs><linearGradient id="b"><stop offset="0" stop-color="#262626"/><stop offset="1" stop-color="#828282"/></linearGradient><linearGradient id="c"><stop offset="0" stop-color="#f3f7fa"/><stop offset="1" stop-color="#fdfeff"/></linearGradient><linearGradient id="d"><stop offset="0"/><stop offset="1" stop-opacity="0"/></linearGradient><linearGradient id="a"><stop offset="0" stop-color="#f6b2ee"/><stop offset=".262" stop-color="#d979cd"/><stop offset=".661" stop-color="#753da6"/><stop offset="1" stop-color="#0f1027"/></linearGradient></defs><path d="M17.82 2.688a3.492 3.492 0 0 0-3.492 3.492 3.492 3.492 0 0 0 .031.43L8.6 9.488a3.492 3.492 0 0 0-2.42-.98A3.492 3.492 0 0 0 2.688 12a3.492 3.492 0 0 0 3.492 3.492 3.492 3.492 0 0 0 2.423-.979l5.755 2.879a3.492 3.492 0 0 0-.03.428 3.492 3.492 0 0 0 3.492 3.492 3.492 3.492 0 0 0 3.493-3.492 3.492 3.492 0 0 0-3.493-3.492 3.492 3.492 0 0 0-2.423.979l-5.754-2.878A3.492 3.492 0 0 0 9.672 12a3.492 3.492 0 0 0-.03-.429l5.759-2.88a3.492 3.492 0 0 0 2.42.98 3.492 3.492 0 0 0 3.491-3.491 3.492 3.492 0 0 0-3.492-3.492z" fill="gray"/></svg>

<?xml version="1.0" encoding="UTF-8" standalone="no"?>
<svg
   xmlns:dc="http://purl.org/dc/elements/1.1/"
   xmlns:cc="http://creativecommons.org/ns#"
   xmlns:rdf="http://www.w3.org/1999/02/22-rdf-syntax-ns#"
   xmlns:svg="http://www.w3.org/2000/svg"
   xmlns="http://www.w3.org/2000/svg"
   xmlns:sodipodi="http://sodipodi.sourceforge.net/DTD/sodipodi-0.dtd"
   xmlns:inkscape="http://www.inkscape.org/namespaces/inkscape"
   width="24"
   height="24"
   version="1"
   id="svg30"
   sodipodi:docname="folder-publicshare-symbolic.svg"
   inkscape:version="0.92.4 (5da689c313, 2019-01-14)">
  <metadata
     id="metadata34">
    <rdf:RDF>
      <cc:Work
         rdf:about="">
        <dc:format>image/svg+xml</dc:format>
        <dc:type
           rdf:resource="http://purl.org/dc/dcmitype/StillImage" />
        <dc:title></dc:title>
      </cc:Work>
    </rdf:RDF>
  </metadata>
  <sodipodi:namedview
     pagecolor="#ffffff"
     bordercolor="#666666"
     borderopacity="1"
     objecttolerance="10"
     gridtolerance="10"
     guidetolerance="10"
     inkscape:pageopacity="0"
     inkscape:pageshadow="2"
     inkscape:window-width="1085"
     inkscape:window-height="480"
     id="namedview32"
     showgrid="false"
     inkscape:zoom="9.8333333"
     inkscape:cx="1.0677966"
     inkscape:cy="12"
     inkscape:window-x="0"
     inkscape:window-y="25"
     inkscape:window-maximized="0"
     inkscape:current-layer="svg30" />
  <defs
     id="defs26">
    <linearGradient
       id="b">
      <stop
         offset="0"
         stop-color="#262626"
         id="stop2" />
      <stop
         offset="1"
         stop-color="#828282"
         id="stop4" />
    </linearGradient>
    <linearGradient
       id="c">
      <stop
         offset="0"
         stop-color="#f3f7fa"
         id="stop7" />
      <stop
         offset="1"
         stop-color="#fdfeff"
         id="stop9" />
    </linearGradient>
    <linearGradient
       id="d">
      <stop
         offset="0"
         id="stop12" />
      <stop
         offset="1"
         stop-opacity="0"
         id="stop14" />
    </linearGradient>
    <linearGradient
       id="a">
      <stop
         offset="0"
         stop-color="#f6b2ee"
         id="stop17" />
      <stop
         offset=".262"
         stop-color="#d979cd"
         id="stop19" />
      <stop
         offset=".661"
         stop-color="#753da6"
         id="stop21" />
      <stop
         offset="1"
         stop-color="#0f1027"
         id="stop23" />
    </linearGradient>
  </defs>
  <path
     d="M 17.82,2.688 A 3.492,3.492 0 0 0 14.328,6.18 3.492,3.492 0 0 0 14.359,6.61 L 8.6,9.488 A 3.492,3.492 0 0 0 6.18,8.508 3.492,3.492 0 0 0 2.688,12 3.492,3.492 0 0 0 6.18,15.492 3.492,3.492 0 0 0 8.603,14.513 l 5.755,2.879 a 3.492,3.492 0 0 0 -0.03,0.428 3.492,3.492 0 0 0 3.492,3.492 3.492,3.492 0 0 0 3.493,-3.492 3.492,3.492 0 0 0 -3.493,-3.492 3.492,3.492 0 0 0 -2.423,0.979 L 9.643,12.429 A 3.492,3.492 0 0 0 9.672,12 3.492,3.492 0 0 0 9.642,11.571 l 5.759,-2.88 a 3.492,3.492 0 0 0 2.42,0.98 A 3.492,3.492 0 0 0 21.312,6.18 3.492,3.492 0 0 0 17.82,2.688 Z"
     id="path28"
     inkscape:connector-curvature="0"
     style="fill:#808080" />
</svg>
